src/assets/filled/Ethereum.svg

<svg width="24" height="24" viewBox="0 0 24 24"  xmlns="http://www.w3.org/2000/svg">
<path d="M8.77011 14.4301L10.3801 15.1501C11.4101 15.6101 12.5901 15.6101 13.6301 15.1501L15.2401 14.4301C16.6801 13.7901 18.0101 15.5301 17.0101 16.7501L13.5501 20.9801C12.7001 22.0201 11.3101 22.0201 10.4501 20.9801L7.00011 16.7501C5.99011 15.5301 7.32011 13.7901 8.77011 14.4301Z" />
<path d="M8.57002 11.6699C8.27002 11.8899 8.31003 12.3499 8.65003 12.5199L11 13.6899C11.55 13.9699 12.44 13.9699 12.98 13.6899L15.33 12.5199C15.66 12.3499 15.7 11.8999 15.41 11.6699L12.3 9.32992C12.12 9.19992 11.88 9.19992 11.7 9.32992L8.57002 11.6699Z" />
<path d="M17.8801 8.23923L13.7101 3.03923C13.6301 2.93923 13.5401 2.84923 13.4501 2.75923C13.1901 2.50923 12.8201 2.73923 12.8201 3.09923V7.39923C12.8201 7.55923 12.8901 7.70923 13.0201 7.79923L17.1701 10.9192L17.3501 11.0492C17.5301 11.1792 17.7801 11.1792 17.9301 11.0192C18.6301 10.2592 18.6201 9.15923 17.8801 8.23923Z" />
<path d="M6.1101 8.33082L10.2601 3.05082C10.3401 2.95082 10.4201 2.86082 10.5101 2.77082C10.7701 2.52082 11.1401 2.74082 11.1401 3.11082V7.48082C11.1401 7.64082 11.0701 7.78082 10.9401 7.88082L6.8101 11.0508L6.6401 11.1808C6.4601 11.3108 6.2101 11.3108 6.0501 11.1408C5.3701 10.3708 5.3801 9.27082 6.1101 8.33082Z" />
</svg>

<?xml version="1.0" encoding="UTF-8"?>
<svg width="24" height="24" viewBox="0 0 24 24" xmlns="http://www.w3.org/2000/svg">
 <path d="m8.7701 14.43 1.61 0.72c1.03 0.46 2.21 0.46 3.25 0l1.61-0.72c1.44-0.64 2.77 1.1 1.77 2.32l-3.46 4.23c-0.85 1.04-2.24 1.04-3.1 0l-3.45-4.23c-1.01-1.22 0.32-2.96 1.77-2.32z"/>
 <path d="m8.57 11.67c-0.3 0.22-0.25999 0.68 0.08001 0.85l2.35 1.17c0.55 0.28 1.44 0.28 1.98 0l2.35-1.17c0.33-0.17 0.37-0.62 0.08-0.85l-3.11-2.34c-0.18-0.13-0.42-0.13-0.6 0l-3.13 2.34z"/>
 <path d="m17.88 8.2392-4.17-5.2c-0.08-0.1-0.17-0.19-0.26-0.28-0.26-0.25-0.63-0.02-0.63 0.34v4.3c0 0.16 0.07 0.31 0.2 0.4l4.15 3.12 0.18 0.13c0.18 0.13 0.43 0.13 0.58-0.03 0.7-0.76 0.69-1.86-0.05-2.78z"/>
 <path d="m6.1101 8.3308 4.15-5.28c0.08-0.1 0.16-0.19 0.25-0.28 0.26-0.25 0.63-0.03 0.63 0.34v4.37c0 0.16-0.07 0.3-0.2 0.4l-4.13 3.17-0.17 0.13c-0.18 0.13-0.43 0.13-0.59-0.04-0.68-0.77-0.67-1.87 0.06-2.81z"/>
</svg>
